inst/assets/svg/wi-night-alt-showers.svg

<?xml version="1.0" encoding="UTF-8"?>
<svg xmlns="http://www.w3.org/2000/svg" xmlns:xlink="http://www.w3.org/1999/xlink" width="30pt" height="30pt" viewBox="0 0 30 30" version="1.1">
<g id="surface651">
<path style=" stroke:none;fill-rule:nonzero;fill:rgb(0%,0%,0%);fill-opacity:1;" d="M 4.070313 16.910156 C 4.070313 18.238281 4.53125 19.390625 5.460938 20.339844 C 6.390625 21.289063 7.519531 21.808594 8.859375 21.871094 C 8.96875 21.871094 9.03125 21.808594 9.03125 21.699219 L 9.03125 20.328125 C 9.03125 20.210938 8.96875 20.148438 8.859375 20.148438 C 7.988281 20.078125 7.261719 19.738281 6.671875 19.109375 C 6.078125 18.488281 5.78125 17.75 5.78125 16.898438 C 5.78125 16.070313 6.058594 15.359375 6.621094 14.738281 C 7.179688 14.121094 7.878906 13.769531 8.71875 13.671875 L 9.25 13.601563 C 9.378906 13.601563 9.449219 13.539063 9.449219 13.429688 L 9.519531 12.910156 C 9.628906 11.828125 10.078125 10.921875 10.890625 10.199219 C 11.699219 9.46875 12.648438 9.109375 13.738281 9.109375 C 14.828125 9.109375 15.78125 9.46875 16.589844 10.199219 C 17.398438 10.921875 17.871094 11.828125 17.980469 12.921875 L 18.058594 13.5 C 18.058594 13.621094 18.121094 13.679688 18.238281 13.679688 L 19.851563 13.679688 C 20.75 13.679688 21.519531 14 22.171875 14.628906 C 22.808594 15.261719 23.140625 16.019531 23.140625 16.910156 C 23.140625 17.761719 22.839844 18.5 22.25 19.121094 C 21.660156 19.738281 20.921875 20.089844 20.058594 20.160156 C 19.929688 20.160156 19.859375 20.21875 19.859375 20.339844 L 19.859375 21.710938 C 19.859375 21.820313 19.929688 21.878906 20.058594 21.878906 C 21.390625 21.839844 22.519531 21.328125 23.441406 20.371094 C 24.359375 19.410156 24.820313 18.261719 24.820313 16.921875 C 24.820313 16.050781 24.601563 15.238281 24.171875 14.488281 C 24.980469 13.761719 25.511719 12.890625 25.75 11.871094 L 25.75 11.738281 L 25.941406 10.949219 L 25.179688 10.738281 C 24.371094 10.5 23.738281 10.039063 23.289063 9.390625 C 22.839844 8.730469 22.621094 8.050781 22.621094 7.359375 C 22.621094 7.101563 22.648438 6.839844 22.699219 6.578125 L 22.898438 5.78125 L 22.050781 5.53125 L 21.898438 5.488281 C 21.429688 5.398438 21.019531 5.351563 20.648438 5.351563 C 20.269531 5.351563 19.890625 5.390625 19.511719 5.480469 C 19.121094 5.570313 18.71875 5.699219 18.308594 5.890625 C 17.890625 6.078125 17.488281 6.339844 17.109375 6.691406 C 16.730469 7.039063 16.390625 7.449219 16.109375 7.921875 C 15.371094 7.589844 14.578125 7.429688 13.75 7.429688 C 12.339844 7.429688 11.089844 7.871094 10 8.738281 C 8.910156 9.609375 8.230469 10.730469 7.929688 12.101563 C 6.808594 12.359375 5.878906 12.929688 5.160156 13.820313 C 4.429688 14.730469 4.070313 15.761719 4.070313 16.910156 Z M 9.46875 23.679688 C 9.46875 23.828125 9.519531 23.980469 9.621094 24.128906 C 9.71875 24.28125 9.871094 24.390625 10.070313 24.460938 C 10.289063 24.53125 10.5 24.519531 10.710938 24.410156 C 10.921875 24.300781 11.050781 24.128906 11.121094 23.898438 L 11.398438 22.839844 C 11.46875 22.628906 11.449219 22.429688 11.328125 22.21875 C 11.210938 22.011719 11.039063 21.878906 10.820313 21.808594 C 10.589844 21.75 10.371094 21.78125 10.171875 21.890625 C 9.96875 22 9.828125 22.191406 9.75 22.421875 L 9.519531 23.410156 C 9.488281 23.570313 9.46875 23.660156 9.46875 23.679688 Z M 10.769531 18.949219 C 10.769531 19.058594 10.800781 19.179688 10.871094 19.308594 C 10.941406 19.480469 11.121094 19.609375 11.398438 19.691406 C 11.640625 19.75 11.859375 19.730469 12.058594 19.628906 C 12.25 19.53125 12.390625 19.351563 12.460938 19.109375 L 12.738281 18.078125 C 12.808594 17.851563 12.789063 17.628906 12.671875 17.441406 C 12.550781 17.238281 12.378906 17.109375 12.160156 17.050781 C 11.921875 16.988281 11.691406 17.011719 11.488281 17.121094 C 11.289063 17.230469 11.160156 17.398438 11.089844 17.640625 L 10.820313 18.648438 C 10.789063 18.78125 10.769531 18.878906 10.769531 18.949219 Z M 12.019531 26.800781 C 12.019531 26.96875 12.070313 27.128906 12.171875 27.289063 C 12.269531 27.449219 12.421875 27.558594 12.621094 27.621094 C 12.730469 27.648438 12.800781 27.671875 12.851563 27.671875 C 12.941406 27.671875 13.058594 27.640625 13.230469 27.570313 C 13.429688 27.488281 13.570313 27.300781 13.660156 27.019531 L 13.960938 25.96875 C 14.03125 25.761719 14.011719 25.550781 13.890625 25.339844 C 13.769531 25.128906 13.601563 25 13.378906 24.929688 C 13.140625 24.871094 12.910156 24.890625 12.710938 25.011719 C 12.511719 25.128906 12.371094 25.300781 12.300781 25.539063 L 12.050781 26.550781 C 12.03125 26.628906 12.019531 26.71875 12.019531 26.800781 Z M 13.351563 22.03125 C 13.351563 22.179688 13.398438 22.328125 13.5 22.480469 C 13.601563 22.628906 13.75 22.738281 13.960938 22.808594 C 14.179688 22.878906 14.398438 22.859375 14.601563 22.75 C 14.800781 22.640625 14.929688 22.46875 15 22.230469 L 15.269531 21.191406 C 15.339844 20.980469 15.320313 20.769531 15.210938 20.570313 C 15.101563 20.371094 14.941406 20.230469 14.71875 20.160156 C 14.480469 20.101563 14.25 20.128906 14.039063 20.238281 C 13.828125 20.351563 13.691406 20.539063 13.621094 20.769531 L 13.378906 21.769531 Z M 16.160156 23.789063 C 16.160156 24.171875 16.371094 24.410156 16.800781 24.539063 C 16.890625 24.558594 16.96875 24.570313 17.039063 24.570313 C 17.191406 24.570313 17.308594 24.550781 17.410156 24.5 C 17.621094 24.421875 17.769531 24.230469 17.851563 23.929688 L 18.121094 22.910156 C 18.179688 22.660156 18.160156 22.441406 18.039063 22.238281 C 17.921875 22.039063 17.75 21.921875 17.511719 21.871094 C 17.28125 21.800781 17.058594 21.820313 16.871094 21.941406 C 16.679688 22.058594 16.539063 22.230469 16.46875 22.449219 L 16.199219 23.488281 C 16.199219 23.511719 16.191406 23.558594 16.179688 23.640625 C 16.160156 23.710938 16.160156 23.761719 16.160156 23.789063 Z M 17.550781 18.980469 C 17.550781 19.140625 17.601563 19.289063 17.699219 19.441406 C 17.800781 19.589844 17.960938 19.699219 18.160156 19.761719 C 18.300781 19.789063 18.378906 19.808594 18.390625 19.808594 C 18.480469 19.808594 18.601563 19.78125 18.769531 19.710938 C 18.980469 19.628906 19.121094 19.441406 19.210938 19.160156 L 19.488281 18.121094 C 19.550781 17.898438 19.519531 17.691406 19.410156 17.488281 C 19.300781 17.289063 19.109375 17.160156 18.878906 17.089844 C 18.660156 17.019531 18.449219 17.039063 18.25 17.160156 C 18.050781 17.28125 17.921875 17.449219 17.851563 17.679688 L 17.589844 18.738281 C 17.558594 18.828125 17.550781 18.921875 17.550781 18.980469 Z M 17.578125 8.808594 C 17.898438 8.25 18.339844 7.808594 18.910156 7.5 C 19.480469 7.191406 20.078125 7.03125 20.71875 7.03125 L 20.929688 7.03125 C 20.921875 7.121094 20.921875 7.238281 20.921875 7.410156 C 20.921875 8.359375 21.179688 9.261719 21.699219 10.121094 C 22.21875 10.980469 22.949219 11.628906 23.871094 12.078125 C 23.648438 12.511719 23.390625 12.878906 23.089844 13.179688 C 22.160156 12.371094 21.070313 11.96875 19.839844 11.96875 L 19.519531 11.96875 C 19.269531 10.78125 18.628906 9.730469 17.578125 8.808594 Z M 17.578125 8.808594 "/>
</g>
</svg>

<?xml version="1.0" encoding="utf-8"?>
<!-- Generator: Adobe Illustrator 22.0.1, SVG Export Plug-In . SVG Version: 6.00 Build 0)  -->
<svg version="1.1" id="Layer_1" xmlns="http://www.w3.org/2000/svg" xmlns:xlink="http://www.w3.org/1999/xlink" x="0px" y="0px"
	 viewBox="0 0 30 30" style="enable-background:new 0 0 30 30;" xml:space="preserve">
<path d="M4.07,16.91c0,1.33,0.46,2.48,1.39,3.43s2.06,1.47,3.4,1.53c0.11,0,0.17-0.06,0.17-0.17v-1.37c0-0.12-0.06-0.18-0.17-0.18
	c-0.87-0.07-1.6-0.41-2.19-1.04c-0.59-0.62-0.89-1.36-0.89-2.21c0-0.83,0.28-1.54,0.84-2.16s1.26-0.97,2.1-1.07l0.53-0.07
	c0.13,0,0.2-0.06,0.2-0.17l0.07-0.52c0.11-1.08,0.56-1.99,1.37-2.71c0.81-0.73,1.76-1.09,2.85-1.09c1.09,0,2.04,0.36,2.85,1.09
	c0.81,0.72,1.28,1.63,1.39,2.72l0.08,0.58c0,0.12,0.06,0.18,0.18,0.18h1.61c0.9,0,1.67,0.32,2.32,0.95
	c0.64,0.63,0.97,1.39,0.97,2.28c0,0.85-0.3,1.59-0.89,2.21c-0.59,0.62-1.33,0.97-2.19,1.04c-0.13,0-0.2,0.06-0.2,0.18v1.37
	c0,0.11,0.07,0.17,0.2,0.17c1.33-0.04,2.46-0.55,3.38-1.51c0.92-0.96,1.38-2.11,1.38-3.45c0-0.87-0.22-1.68-0.65-2.43
	c0.81-0.73,1.34-1.6,1.58-2.62v-0.13l0.19-0.79l-0.76-0.21c-0.81-0.24-1.44-0.7-1.89-1.35c-0.45-0.66-0.67-1.34-0.67-2.03
	c0-0.26,0.03-0.52,0.08-0.78l0.2-0.8l-0.85-0.25L21.9,5.49c-0.47-0.09-0.88-0.14-1.25-0.14c-0.38,0-0.76,0.04-1.14,0.13
	c-0.39,0.09-0.79,0.22-1.2,0.41c-0.42,0.19-0.82,0.45-1.2,0.8c-0.38,0.35-0.72,0.76-1,1.23c-0.74-0.33-1.53-0.49-2.36-0.49
	c-1.41,0-2.66,0.44-3.75,1.31s-1.77,1.99-2.07,3.36c-1.12,0.26-2.05,0.83-2.77,1.72C4.43,14.73,4.07,15.76,4.07,16.91z M9.47,23.68
	c0,0.15,0.05,0.3,0.15,0.45c0.1,0.15,0.25,0.26,0.45,0.33c0.22,0.07,0.43,0.06,0.64-0.05s0.34-0.28,0.41-0.51l0.28-1.06
	c0.07-0.21,0.05-0.41-0.07-0.62c-0.12-0.21-0.29-0.34-0.51-0.41c-0.23-0.06-0.45-0.03-0.65,0.08s-0.34,0.3-0.42,0.53l-0.23,0.99
	C9.49,23.57,9.47,23.66,9.47,23.68z M10.77,18.95c0,0.11,0.03,0.23,0.1,0.36c0.07,0.17,0.25,0.3,0.53,0.38
	c0.24,0.06,0.46,0.04,0.66-0.06c0.19-0.1,0.33-0.28,0.4-0.52l0.28-1.03c0.07-0.23,0.05-0.45-0.07-0.64
	c-0.12-0.2-0.29-0.33-0.51-0.39c-0.24-0.06-0.47-0.04-0.67,0.07c-0.2,0.11-0.33,0.28-0.4,0.52l-0.27,1.01
	C10.79,18.78,10.77,18.88,10.77,18.95z M12.02,26.8c0,0.17,0.05,0.33,0.15,0.49c0.1,0.16,0.25,0.27,0.45,0.33
	c0.11,0.03,0.18,0.05,0.23,0.05c0.09,0,0.21-0.03,0.38-0.1c0.2-0.08,0.34-0.27,0.43-0.55l0.3-1.05c0.07-0.21,0.05-0.42-0.07-0.63
	c-0.12-0.21-0.29-0.34-0.51-0.41c-0.24-0.06-0.47-0.04-0.67,0.08c-0.2,0.12-0.34,0.29-0.41,0.53l-0.25,1.01
	C12.03,26.63,12.02,26.72,12.02,26.8z M13.35,22.03c0,0.15,0.05,0.3,0.15,0.45s0.25,0.26,0.46,0.33c0.22,0.07,0.44,0.05,0.64-0.06
	c0.2-0.11,0.33-0.28,0.4-0.52l0.27-1.04c0.07-0.21,0.05-0.42-0.06-0.62c-0.11-0.2-0.27-0.34-0.49-0.41
	c-0.24-0.06-0.47-0.03-0.68,0.08s-0.35,0.3-0.42,0.53l-0.24,1L13.35,22.03z M16.16,23.79c0,0.38,0.21,0.62,0.64,0.75
	c0.09,0.02,0.17,0.03,0.24,0.03c0.15,0,0.27-0.02,0.37-0.07c0.21-0.08,0.36-0.27,0.44-0.57l0.27-1.02c0.06-0.25,0.04-0.47-0.08-0.67
	s-0.29-0.32-0.53-0.37c-0.23-0.07-0.45-0.05-0.64,0.07s-0.33,0.29-0.4,0.51l-0.27,1.04c0,0.02-0.01,0.07-0.02,0.15
	C16.16,23.71,16.16,23.76,16.16,23.79z M17.55,18.98c0,0.16,0.05,0.31,0.15,0.46c0.1,0.15,0.26,0.26,0.46,0.32
	c0.14,0.03,0.22,0.05,0.23,0.05c0.09,0,0.21-0.03,0.38-0.1c0.21-0.08,0.35-0.27,0.44-0.55l0.28-1.04c0.06-0.22,0.03-0.43-0.08-0.63
	s-0.3-0.33-0.53-0.4c-0.22-0.07-0.43-0.05-0.63,0.07s-0.33,0.29-0.4,0.52l-0.26,1.06C17.56,18.83,17.55,18.92,17.55,18.98z
	 M17.58,8.81c0.32-0.56,0.76-1,1.33-1.31c0.57-0.31,1.17-0.47,1.81-0.47h0.21c-0.01,0.09-0.01,0.21-0.01,0.38
	c0,0.95,0.26,1.85,0.78,2.71c0.52,0.86,1.25,1.51,2.17,1.96c-0.22,0.43-0.48,0.8-0.78,1.1c-0.93-0.81-2.02-1.21-3.25-1.21h-0.32
	C19.27,10.78,18.63,9.73,17.58,8.81z"/>
</svg>
